packages/foundations/assets/icons/functional/images/technology/bug_20.svg

<svg width="20" height="20" viewBox="0 0 20 20" fill="none" xmlns="http://www.w3.org/2000/svg">
<g clip-path="url(#clip0_187_569)">
<path fill-rule="evenodd" clip-rule="evenodd" d="M7.865 2.49878L8.826 4.15478C9.204 4.06278 9.594 4.00078 10 4.00078C10.396 4.00078 10.776 4.05878 11.145 4.14578L12.143 2.48578C12.428 2.01278 13.041 1.86078 13.515 2.14378C13.989 2.42878 14.142 3.04278 13.857 3.51678L12.966 4.99878C13.937 5.71978 14.649 6.77278 14.899 8.00078H17C17.552 8.00078 18 8.44778 18 9.00078C18 9.55378 17.552 10.0008 17 10.0008H15V11.0008H17C17.552 11.0008 18 11.4478 18 12.0008C18 12.5538 17.552 13.0008 17 13.0008H15C15 13.3428 14.965 13.6778 14.899 14.0008H17C17.552 14.0008 18 14.4478 18 15.0008C18 15.5538 17.552 16.0008 17 16.0008H13.974C13.061 17.2078 11.629 18.0008 10 18.0008C8.371 18.0008 6.935 17.2068 6.022 15.9968L6 16.0008H3C2.448 16.0008 2 15.5538 2 15.0008C2 14.4478 2.448 14.0008 3 14.0008H5.101C5.035 13.6778 5 13.3428 5 13.0008H3C2.448 13.0008 2 12.5538 2 12.0008C2 11.4478 2.448 11.0008 3 11.0008H5V10.0008H3C2.448 10.0008 2 9.55378 2 9.00078C2 8.44778 2.448 8.00078 3 8.00078H5.101C5.349 6.78278 6.053 5.73778 7.013 5.01578L6.135 3.50278C5.858 3.02578 6.02 2.41278 6.498 2.13578C6.975 1.85578 7.588 2.02078 7.865 2.49878ZM13 10.0008H7V13.0008C7 14.6548 8.346 16.0008 10 16.0008C11.654 16.0008 13 14.6548 13 13.0008V10.0008ZM11 12.0008C11.552 12.0008 12 12.4478 12 13.0008C12 13.5538 11.552 14.0008 11 14.0008H9C8.448 14.0008 8 13.5538 8 13.0008C8 12.4478 8.448 12.0008 9 12.0008H11ZM10 6.00078C8.698 6.00078 7.598 6.83978 7.184 8.00078H12.816C12.402 6.83978 11.302 6.00078 10 6.00078Z" fill="#1A1C1F"/>
</g>
<defs>
<clipPath id="clip0_187_569">
<rect width="20" height="20" fill="white"/>
</clipPath>
</defs>
</svg>

<svg xmlns="http://www.w3.org/2000/svg" width="20" height="20" fill="none"><g clip-path="url(#a)"><path fill="#1A1C1F" fill-rule="evenodd" d="m7.865 2.499.961 1.656A5 5 0 0 1 10 4c.396 0 .776.058 1.145.145l.998-1.66a1.001 1.001 0 0 1 1.714 1.03L12.966 5A5 5 0 0 1 14.899 8H17a1 1 0 1 1 0 2h-2v1h2a1 1 0 1 1 0 2h-2q-.001.514-.101 1H17a1 1 0 1 1 0 2h-3.026c-.913 1.207-2.345 2-3.974 2s-3.065-.794-3.978-2.004L6 16H3a1 1 0 1 1 0-2h2.101A5 5 0 0 1 5 13H3a1 1 0 1 1 0-2h2v-1H3a1 1 0 1 1 0-2h2.101a5 5 0 0 1 1.912-2.985l-.878-1.513a1 1 0 0 1 1.73-1.004M13 10H7v3c0 1.654 1.346 3 3 3s3-1.346 3-3zm-2 2a1 1 0 1 1 0 2H9a1 1 0 1 1 0-2zm-1-6a3 3 0 0 0-2.816 2h5.632A3 3 0 0 0 10 6" clip-rule="evenodd"/></g><defs><clipPath id="a"><path fill="#fff" d="M0 0h20v20H0z"/></clipPath></defs></svg>
